svgs/sharp-solid/cart-flatbed.svg

<svg xmlns="http://www.w3.org/2000/svg" viewBox="0 0 640 512"><!--! Font Awesome Pro 6.6.0 by @fontawesome - https://fontawesome.com License - https://fontawesome.com/license (Commercial License) Copyright 2024 Fonticons, Inc. --><path d="M32 0L0 0 0 64l32 0 32 0 0 352 0 32 32 0 66.7 0c-1.8 5-2.7 10.4-2.7 16c0 26.5 21.5 48 48 48s48-21.5 48-48c0-5.6-1-11-2.7-16l197.5 0c-1.8 5-2.7 10.4-2.7 16c0 26.5 21.5 48 48 48s48-21.5 48-48c0-5.6-1-11-2.7-16l66.7 0 32 0 0-64-32 0-480 0 0-352 0-32L96 0 32 0zM192 32l0 288 416 0 0-288L464 32l0 160-64-48-64 48 0-160L192 32z"/></svg>

<svg xmlns="http://www.w3.org/2000/svg" viewBox="0 0 640 512"><!--! Font Awesome Pro 6.4.2 by @fontawesome - https://fontawesome.com License - https://fontawesome.com/license (Commercial License) Copyright 2023 Fonticons, Inc. --><path d="M32 0H0V64H32 64V416v32H96h66.7c-1.8 5-2.7 10.4-2.7 16c0 26.5 21.5 48 48 48s48-21.5 48-48c0-5.6-1-11-2.7-16H450.7c-1.8 5-2.7 10.4-2.7 16c0 26.5 21.5 48 48 48s48-21.5 48-48c0-5.6-1-11-2.7-16H608h32V384H608 128V32 0H96 32zM192 32V320H608V32H464V192l-64-48-64 48V32H192z"/></svg>
